X: 10
T: Jenny Dang The Weaver
R: reel
M: 4/4
L: 1/8
K: Dmaj
f/e/|: dA A/A/A AFAB | dA A/A/A f2 ef | dB B/B/B BABd | ABde faef |
dA A/A/A AFAB | dA A/A/A f2 ef | dB B/B/B BABd | ABde f2 ef |
d2 fd efge | d2 fd e2 cA | d2 fd efge | aA A/A/A f2 ef |
d2 fd efge | defd e2 cA | defd efge | abag faef :|| d2 |


Tune 380	Setting 23199

